!!!SOCIAL_FUNCTION:	corn dance songs
!!!PDT:	1932
!!!OTL: No_16_Corn_Dance_Song_(b).krn
!!!REG: Southwest
!!!LANG: Non-Tone
!!!LING_GROUP: Yuman-Cochimi
**kern	**kern
*staff2	*staff1
=1-	=1-
*clefF4	*clefF4
*k[f#c#g#d#a#]	*k[f#c#g#d#a#]
*M3/4	*M3/4
8.GG#/L	8E\L
.	8E\J
16GG#/Jk	.
8.GG#/L	8.E\L
16GG#/Jk	16D#\Jk
8.GG#/L	8E\
.	8r
16GG#/Jk	.
=2||	=2||
*M2/4	*M2/4
8.GG#/L	16E\LK
.	8.E\J
16GG#/Jk	.
8.GG#/L	8E\
.	8r
16GG#/Jk	.
=3	=3
2r	8.E\L
.	16D#\Jk
.	4E\
=4	=4
2r	8.D#\L
.	16D#\Jk
.	8E\L
.	8E\J
=5	=5
2r	16E\LK
.	8.D#\J
.	4r
=6	=6
2r	16D#\LK
.	8.D#\J
.	8D#\
.	8r
=7	=7
2r	4D#\
.	4D#\
=8	=8
2r	8.D#\L
.	16D#\Jk
.	8E\L
.	8E\J
=9	=9
2r	16E\LK
.	8.D#\J
.	4r
=10	=10
2r	16D#\LK
.	8.D#\J
.	8D#\
.	8r
=11	=11
2r	4D#\
.	4D#\
=12	=12
2r	8.D#\L
.	16D#\Jk
.	8D#\L
.	8D#\J
=13	=13
2r	16E\LK
.	8.D#\J
.	4r
=14	=14
2r	16D#\LK
.	8.D#\J
.	8D#\
.	8r
=15	=15
2r	4D#\
.	4D#\
=16	=16
2r	8.D#\L
.	16E\Jk
.	8E\L
.	8E\J
=17	=17
2r	16E\LK
.	8.D#\J
.	4r
=18	=18
2r	16D#\LK
.	8.D#\J
.	8D#\
.	8r
=19	=19
2r	4D#\
.	4D#\
=20	=20
2r	8.D#\L
.	16E\Jk
.	8E\L
.	8E\J
=21	=21
2r	16E\LK
.	8.D#\J
.	4r
=22	=22
2r	16D#\LK
.	8.D#\J
.	8D#\
.	8r
=23	=23
2r	4D#\
.	4D#\
=24	=24
2r	8.D#\L
.	16D#\Jk
.	8E\L
.	8E\J
=25	=25
2r	16E\LK
.	8.D#\J
.	4r
=26	=26
2r	16D#\LK
.	8.D#\J
.	4D#\
=27	=27
2r	4D#\
.	4D#\
=28	=28
2r	8.D#\L
.	16D#\Jk
.	8E\L
.	8F#\J
=29	=29
2r	4F#\
.	4r
=30	=30
2r	16F#\LK
.	8.F#\J
.	8F#\
.	8r
=31	=31
2r	4F#\
.	8.F#\L
.	16G#\Jk
=32	=32
2r	8E\
.	16r
.	16E\
.	8E\L
.	8F#\J
=33	=33
2r	4D#\
.	4r
=34	=34
2r	16D#\LK
.	8.D#\J
.	8D#\
.	8r
=35	=35
2r	4D#\
.	4D#\
=36	=36
2r	8.D#\L
.	16D#\Jk
.	8E\L
.	8F#\J
=37	=37
2r	4D#\
.	4r
=38	=38
2r	16D#\LK
.	8.D#\J
.	8D#\
.	8r
=39	=39
2r	4D#\
.	4D#\
=40	=40
2r	8.D#\L
.	16D#\Jk
.	8E\L
.	8F#\J
=41	=41
2r	4D#\
.	4r
=42	=42
2r	16D#\LK
.	8.D#\J
.	8D#\
.	8r
==	==
*-	*-
